!!!SOCIAL_FUNCTION:	love songs
!!!PDT:	1909
!!!OTL: No_141.krn
!!!REG: Great_Lakes
!!!LANG: Non-Tone
!!!LING_GROUP: Algonquin
**kern
*staff1
=1-
*clefG2
*k[b-e-a-d-g-]
8f/L
8f/J
8f/
24gn/LL
24a-/
24a-/JJ
=2
8f/L
8f/J
8f/
24g-/LL
24f/
24e-/JJ
=3
2d-/
=4
8d-/L
8d-/J
24d-/LL
24d-/
(24d-/JJ
(8f/)
=5
8f/L)
8d-/J
8f/L
8B-/J
=6||
*M3/4
2.A-/
*clefF4
=7||
*M2/4
24A-\LL
24B-\
24B-\JJ
[8d-\
8d-\]
24B-\LL
24B-\
24B-\JJ
=8
4.F\
8E-\
=9||
*M3/4
[2D-\
8D-\L]
16A-\L
16A-\JJ
=10||
*M2/4
4.B-\
16A-\LL
16F\JJ
=11||
*M3/4
4.E-\
8D-\
8.E-\L
16D-\Jk
=12
2.BB-/
*clefG2
=13||
*M2/4
8f/L
8f/J
16f/LK
[8.a-/J
=14
4a-/]
8f/L
8a-/J
=15
4f/
12g-/L
12f/
12e-/J
=16
2d-/
=17
4d-/
16d-/LK
8.f/J
=18
4f/
8d-/L
8f/J
=19
4.B-/
8A-/
=20
2A-/
*clefF4
=21||
16B-\LL
16B-\J
8B-\J
8B-\L
[8d-\J
=22
8d-\]
4B-\
8d-\
=23
4.F\
8E-\
=24||
*M3/4
2.D-\
=25
8A-\L
8A-\J
2B-\
=26
8A-\L
8B-\J
2F\
=27
4.E-\
8D-\
8.E-\L
16D-\Jk
=28
2.BB-/
==
*-
